X:14
T:The Dressed Ship
M:C|
L:1/8
B:The Round Band Book of Playford
K:A
e2 | "A"c2A2 E2c2 | "E7"d4 def2 |\
"A"e2c2 a2c2 | "Bm"d2 B4 "E7"e2 |\
"A"c2A2 E2c2 | "D"d2f2 "A"e2a2 |\
"D"f2d2 "E7"B2e2 | "A"c2 A4 :|
|:\
fg | "A"a2e2 c2A2 | "D"fgaf "A"e2c2 |\
"D"d2f2 "A"e2c2 | "Bm"d2 B4 "E7"fg |\
"A"a2e2 c2A2 | "D"fgaf "A"e2c2 |\
"D"f2d2 "E7"B2e2 | "A"c2 A4 :|
